X: 1
T: Reel du p\`ere Verret
O: trad Qu\'ebec
R: reel
Z: 2007 John Chambers <jc:trillian.mit.edu> from Pascal Gemme's blog
M: 2/4
L: 1/16
K: D
   de | fedf  edBc | dBBA  BAFD |   RD2FA  cBAG |1,3 FAde fe :|2,4 FAEA D2  :|
|: AG | FDRD2 FDAF | EGEG =cBAG |1,3 FDRD2 FDAD |    BDcD d2 :|2,4 FAdf edce | dfec d2 :|
